src/static/views/assets/icons/scheme-light.svg

<svg width="22" height="22" fill="none" xmlns="http://www.w3.org/2000/svg"><path fill="#343434" d="M11 8c1.65 0 3 1.35 3 3s-1.35 3-3 3-3-1.35-3-3 1.35-3 3-3Zm0-2c-2.76 0-5 2.24-5 5s2.24 5 5 5 5-2.24 5-5-2.24-5-5-5ZM1 12h2c.55 0 1-.45 1-1s-.45-1-1-1H1c-.55 0-1 .45-1 1s.45 1 1 1Zm18 0h2c.55 0 1-.45 1-1s-.45-1-1-1h-2c-.55 0-1 .45-1 1s.45 1 1 1ZM10 1v2c0 .55.45 1 1 1s1-.45 1-1V1c0-.55-.45-1-1-1s-1 .45-1 1Zm0 18v2c0 .55.45 1 1 1s1-.45 1-1v-2c0-.55-.45-1-1-1s-1 .45-1 1ZM4.99 3.58a.996.996 0 0 0-1.41 0 .996.996 0 0 0 0 1.41l1.06 1.06c.39.39 1.03.39 1.41 0 .38-.39.39-1.03 0-1.41L4.99 3.58Zm12.37 12.37a.996.996 0 0 0-1.41 0 .996.996 0 0 0 0 1.41l1.06 1.06c.39.39 1.03.39 1.41 0a.996.996 0 0 0 0-1.41l-1.06-1.06Zm1.06-10.96a.996.996 0 0 0 0-1.41.996.996 0 0 0-1.41 0l-1.06 1.06a.996.996 0 0 0 0 1.41c.39.38 1.03.39 1.41 0l1.06-1.06ZM6.05 17.36a.996.996 0 0 0 0-1.41.996.996 0 0 0-1.41 0l-1.06 1.06a.996.996 0 0 0 0 1.41c.39.38 1.03.39 1.41 0l1.06-1.06Z"/></svg>

<svg width="22" height="22" viewBox="0 0 22 22" fill="none" xmlns="http://www.w3.org/2000/svg" >
<path fill="#343434" d="M11 8C12.65 8 14 9.35 14 11C14 12.65 12.65 14 11 14C9.35 14 8 12.65 8 11C8 9.35 9.35 8 11 8ZM11 6C8.24 6 6 8.24 6 11C6 13.76 8.24 16 11 16C13.76 16 16 13.76 16 11C16 8.24 13.76 6 11 6ZM1 12H3C3.55 12 4 11.55 4 11C4 10.45 3.55 10 3 10H1C0.45 10 0 10.45 0 11C0 11.55 0.45 12 1 12ZM19 12H21C21.55 12 22 11.55 22 11C22 10.45 21.55 10 21 10H19C18.45 10 18 10.45 18 11C18 11.55 18.45 12 19 12ZM10 1V3C10 3.55 10.45 4 11 4C11.55 4 12 3.55 12 3V1C12 0.45 11.55 0 11 0C10.45 0 10 0.45 10 1ZM10 19V21C10 21.55 10.45 22 11 22C11.55 22 12 21.55 12 21V19C12 18.45 11.55 18 11 18C10.45 18 10 18.45 10 19ZM4.99 3.58C4.6 3.19 3.96 3.19 3.58 3.58C3.19 3.97 3.19 4.61 3.58 4.99L4.64 6.05C5.03 6.44 5.67 6.44 6.05 6.05C6.43 5.66 6.44 5.02 6.05 4.64L4.99 3.58ZM17.36 15.95C16.97 15.56 16.33 15.56 15.95 15.95C15.56 16.34 15.56 16.98 15.95 17.36L17.01 18.42C17.4 18.81 18.04 18.81 18.42 18.42C18.81 18.03 18.81 17.39 18.42 17.01L17.36 15.95ZM18.42 4.99C18.81 4.6 18.81 3.96 18.42 3.58C18.03 3.19 17.39 3.19 17.01 3.58L15.95 4.64C15.56 5.03 15.56 5.67 15.95 6.05C16.34 6.43 16.98 6.44 17.36 6.05L18.42 4.99ZM6.05 17.36C6.44 16.97 6.44 16.33 6.05 15.95C5.66 15.56 5.02 15.56 4.64 15.95L3.58 17.01C3.19 17.4 3.19 18.04 3.58 18.42C3.97 18.8 4.61 18.81 4.99 18.42L6.05 17.36Z"/>
</svg>
